!!!!SEGMENT: pl-sa--l-1643--048_anonim--laetamini-in-jerusalem.krn
!!!cenid: 16xx:1406
!!!COM: Anonim
!!!COM-rismid: pe30004985
!!!CDT:
!!!CNT:
!!!OTL: Laetamini in Jerusalem
!!!PDT:
!!!AGN: Sacred
!!!SMS-siglum: PL-SA
!!!SMS-shelfmark: L 1643
!!!SMS-shelfwork: 048 W
!!!SMS-variant:
!!!SMS-altvar:
!!!NIFC-rismid: 1001064443
!!!URL-scan: http://repozytorium.nifc.pl/skany/pl-sa-nut--l1643
!!!ONB-nifc: UWAGA: 8 ksiąg. Primi chori: 1mus Cantus (80-81), C 2dus (80-81), C 3tius (77-78), Bassus (75); Secondi chori: Primus Cantus (74-75), C 2dus (77-78), Altus (75-76), Bassus (76-77). UWAGA: Nie dodawać pustych linii, chyba że w rękopisie pojawiają się dodatkowe oznaczenia dotyczące pełnej obsady (a 4, a 8 itp.)
!!!key:
**kern	**text	**kern	**text	**kern	**text	**kern	**text	**kern	**text	**kern	**text	**kern	**text	**kern	**text
*part8	*part8	*part7	*part7	*part6	*part6	*part5	*part5	*part4	*part4	*part3	*part3	*part2	*part2	*part1	*part1
*staff8	*staff8	*staff7	*staff7	*staff6	*staff6	*staff5	*staff5	*staff4	*staff4	*staff3	*staff3	*staff2	*staff2	*staff1	*staff1
*Iempty	*	*Iempty	*	*Iempty	*	*Iempty	*	*Iempty	*	*Iempty	*	*Iempty	*	*Iempty	*
*I"Baſsus 2di Chori	*	*I"Altus secundi Chori.	*	*I"Cantus 2dus Secundi Chori.	*	*I"Primus Cantus 2di Chori	*	*I"Bassus Primi Chori.	*	*I"Cantus 3tius Primi Chori	*	*I"Cantus 2dus Primi Chori.	*	*I"Imus Cantus Primi Chori	*
*I'B	*	*I'A	*	*I'S 2	*	*I'S 1	*	*I'B	*	*I'S 3	*	*I'S 2	*	*I'S 1	*
*clefC3	*	*clefC2	*	*clefC1	*	*clefG2	*	*clefC3	*	*clefC2	*	*clefC1	*	*clefG2	*
*k[b-]	*	*k[b-]	*	*k[b-]	*	*k[b-]	*	*k[b-]	*	*k[b-]	*	*k[b-]	*	*k[b-]	*
*F:	*	*F:	*	*F:	*	*F:	*	*F:	*	*F:	*	*F:	*	*F:	*
*M3/2	*	*M3/2	*	*M3/2	*	*M3/2	*	*M3/2	*	*M3/2	*	*M3/2	*	*M3/2	*
=1-	=1-	=1-	=1-	=1-	=1-	=1-	=1-	=1-	=1-	=1-	=1-	=1-	=1-	=1-	=1-
!	!	!	!	!	!	!	!	!	!	!	!	!	!	!LO:TX:t=P:problem=oddech/cezura na dole:global	!
!LO:N:vis=0	!	!LO:N:vis=0	!	!LO:N:vis=0	!	!LO:N:vis=0	!	!	!	!	!	!	!	!	!
0.r	.	0.r	.	0.r	.	0.r	.	1f	Lae-	1a	Lae-	1cc	Lae-	1ff	Lae-
.	.	.	.	.	.	.	.	1f\	-ta-	1a\	-ta-	1cc\	-ta-	1ff\	-ta-
=2-	=2-	=2-	=2-	=2-	=2-	=2-	=2-	=2-	=2-	=2-	=2-	=2-	=2-	=2-	=2-
.	.	.	.	.	.	.	.	.	.	.	.	.	.	.	.
.	.	.	.	.	.	.	.	1c	-mi-	1g	-mi-	1cc	-mi-	1ee	-mi-
=3-	=3-	=3-	=3-	=3-	=3-	=3-	=3-	=3-	=3-	=3-	=3-	=3-	=3-	=3-	=3-
1f	Lae-	1f	Lae-	1a	Lae-	1ff	Lae-	2F/	-ni	0a	-ni	0cc	-ni	0ff	-ni
.	.	.	.	.	.	.	.	2G/	.	.	.	.	.	.	.
1f\	-ta-	1c/	-ta-	1a\	-ta-	1ff\	-ta-	2A/	.	.	.	.	.	.	.
=4-	=4-	=4-	=4-	=4-	=4-	=4-	=4-	=4-	=4-	=4-	=4-	=4-	=4-	=4-	=4-
.	.	.	.	.	.	.	.	2B-/	.	.	.	.	.	.	.
1c	-mi-	1c	-mi-	1cc	-mi-	1ee	-mi-	1c	in	1g	in	1cc	in	1gg	in
=5-	=5-	=5-	=5-	=5-	=5-	=5-	=5-	=5-	=5-	=5-	=5-	=5-	=5-	=5-	=5-
2F/	-ni	0c	-ni	0cc	-ni	0ff	-ni	1f	Hie-	1a	Hie-	1a	Hie-	1ff	Hie-
2G/	.	.	.	.	.	.	.	.	.	.	.	.	.	.	.
2A/	.	.	.	.	.	.	.	1f\	-ru-	1a\	-ru-	1cc\	-ru-	1ff\	-ru-
=6-	=6-	=6-	=6-	=6-	=6-	=6-	=6-	=6-	=6-	=6-	=6-	=6-	=6-	=6-	=6-
2B-/	.	.	.	.	.	.	.	.	.	.	.	.	.	.	.
1c	in	1e	in	1cc	in	1ee	in	1c	-sa-	1g	-sa-	1cc	-sa-	1gg	-sa-
=7-	=7-	=7-	=7-	=7-	=7-	=7-	=7-	=7-	=7-	=7-	=7-	=7-	=7-	=7-	=7-
1f	Hie-	1a	Hie-	1cc	Hie-	1ff	Hie-	1F	-lem	1a	-lem	1cc	-lem	1ff	-lem
1c\	-ru-	1g\	-ru-	1cc\	-ru-	1ee\	-ru-	1r	.	1r	.	1r	.	1r	.
=8-	=8-	=8-	=8-	=8-	=8-	=8-	=8-	=8-	=8-	=8-	=8-	=8-	=8-	=8-	=8-
.	.	.	.	.	.	.	.	.	.	.	.	.	.	.	.
!	!	!	!	!LO:TX:b:t=P:problem:# below	!	!	!	!	!	!	!	!	!	!	!
!	!	!	!	!LO:N:acc=#	!	!	!	!	!	!	!	!	!	!	!
1G	-sa-	1g	-sa-	1bn	-sa-	1dd	-sa-	1r	.	1r	.	1r	.	1r	.
=9-	=9-	=9-	=9-	=9-	=9-	=9-	=9-	=9-	=9-	=9-	=9-	=9-	=9-	=9-	=9-
*M2/2	*	*M2/2	*	*M2/2	*	*M2/2	*	*M2/2	*	*M2/2	*	*M2/2	*	*M2/2	*
*met(c|)	*	*met(c|)	*	*met(c|)	*	*met(c|)	*	*met(c|)	*	*met(c|)	*	*met(c|)	*	*met(c|)	*
!	!	!	!	!	!	!	!	!LO:N:vis=0	!	!	!	!	!	!LO:N:vis=0	!
2c/	-lem	2g\	-lem	2cc\	-lem	2ee\	-lem	0r	.	4r	.	1r	.	0r	.
.	.	.	.	.	.	.	.	.	.	4g\	et	.	.	.	.
!	!	!	!	!LO:SIC:v:t=custos cc	!	!	!	!	!	!	!	!	!	!	!
2r	.	2r	.	2r	.	2r	.	.	.	4g\	ex-	.	.	.	.
.	.	.	.	.	.	.	.	.	.	4a\	-ul-	.	.	.	.
!	!	!	!	!LO:LB:g=original	!	!	!	!	!	!	!	!	!	!	!
=10-	=10-	=10-	=10-	=10-	=10-	=10-	=10-	=10-	=10-	=10-	=10-	=10-	=10-	=10-	=10-
!LO:N:vis=00	!	!LO:N:vis=00	!	!LO:N:vis=00	!	!LO:N:vis=00	!	!	!	!	!	!	!	!	!
00r	.	00r	.	00r	.	00r	.	.	.	2b-\	-ta-	4r	.	.	.
.	.	.	.	.	.	.	.	.	.	.	.	4b-\	et	.	.
.	.	.	.	.	.	.	.	.	.	2f\	-te	4b-\	ex-	.	.
.	.	.	.	.	.	.	.	.	.	.	.	4cc\	-ul-	.	.
=11-	=11-	=11-	=11-	=11-	=11-	=11-	=11-	=11-	=11-	=11-	=11-	=11-	=11-	=11-	=11-
.	.	.	.	.	.	.	.	1r	.	2b-\	in	2dd\	-ta-	4r	.
.	.	.	.	.	.	.	.	.	.	.	.	.	.	4dd\	et
.	.	.	.	.	.	.	.	.	.	2g\	e-	2b-\	-te	4dd\	ex-
.	.	.	.	.	.	.	.	.	.	.	.	.	.	4ee\	-ul-
=12-	=12-	=12-	=12-	=12-	=12-	=12-	=12-	=12-	=12-	=12-	=12-	=12-	=12-	=12-	=12-
.	.	.	.	.	.	.	.	4r	.	2f\	-a	2a\	.	2.ff\	-ta-
.	.	.	.	.	.	.	.	4d\	et	.	.	.	.	.	.
.	.	.	.	.	.	.	.	4d\	ex-	4r	.	4r	.	.	.
.	.	.	.	.	.	.	.	4e\	-ul-	4g\	et	4cc\	et	4cc\	-te
=13-	=13-	=13-	=13-	=13-	=13-	=13-	=13-	=13-	=13-	=13-	=13-	=13-	=13-	=13-	=13-
.	.	.	.	.	.	.	.	2f\	-ta-	4a\	ex-	4a\	ex-	2r	.
.	.	.	.	.	.	.	.	.	.	4f\	-ul-	4b-\	-ul-	.	.
!	!	!	!	!	!	!	!	!	!	!	!	!LO:SIC:v:t=custos cc	!	!	!
.	.	.	.	.	.	.	.	2c/	-te	2g\	-ta-	2cc\	-ta-	4r	.
.	.	.	.	.	.	.	.	.	.	.	.	.	.	4ee\	et
!	!	!	!	!	!	!	!	!	!	!	!	!LO:LB:g=original	!	!	!
=14-	=14-	=14-	=14-	=14-	=14-	=14-	=14-	=14-	=14-	=14-	=14-	=14-	=14-	=14-	=14-
!LO:N:vis=00	!	!LO:N:vis=00	!	!LO:N:vis=00	!	!LO:N:vis=00	!	!	!	!	!	!	!	!	!
00r	.	00r	.	00r	.	00r	.	2r	.	4g\	-te	4cc,\	-te	4ee\	ex-
!	!	!	!	!	!	!	!	!	!	!LO:SIC:v:t=custos g	!	!	!	!LO:SIC:v:t=custos gg	!
.	.	.	.	.	.	.	.	.	.	4b-\	in	4dd\	et	4ff\	-ul-
!	!	!	!	!	!	!	!	!	!	!LO:PB:g=original	!	!	!	!LO:LB:g=original	!
.	.	.	.	.	.	.	.	4r	.	2g\	e-	4cc\	ex-	1gg\	-ta-
.	.	.	.	.	.	.	.	4e\	et	.	.	4cc\	-ul-	.	.
=15-	=15-	=15-	=15-	=15-	=15-	=15-	=15-	=15-	=15-	=15-	=15-	=15-	=15-	=15-	=15-
.	.	.	.	.	.	.	.	4e\	ex-	4g,\	-a	4g/	-ta-	.	.
.	.	.	.	.	.	.	.	4f\	-ul-	4f\	et	4a\	.	.	.
.	.	.	.	.	.	.	.	2g\	-ta-	4b-\	ex-	4b-\	.	4dd,\	-te
.	.	.	.	.	.	.	.	.	.	4b-\	-ul-	4cc\	.	4ee\	.
=16-	=16-	=16-	=16-	=16-	=16-	=16-	=16-	=16-	=16-	=16-	=16-	=16-	=16-	=16-	=16-
.	.	.	.	.	.	.	.	4d\	-te	2a\	-ta-	4dd\	-te	4ff\	.
.	.	.	.	.	.	.	.	4e\	in	.	.	4cc,\	.	4cc\	in
.	.	.	.	.	.	.	.	2f\	e-	4a\	-te	4a\	in	2.ff\	.
.	.	.	.	.	.	.	.	.	.	4a\	in	4b-\	.	.	.
=17-	=17-	=17-	=17-	=17-	=17-	=17-	=17-	=17-	=17-	=17-	=17-	=17-	=17-	=17-	=17-
.	.	.	.	.	.	.	.	1c	.	1g	e-	1cc	e-	.	.
.	.	.	.	.	.	.	.	.	.	.	.	.	.	8ee\L	e-
.	.	.	.	.	.	.	.	.	.	.	.	.	.	8dd\J	.
.	.	.	.	.	.	.	.	.	.	.	.	.	.	2ee\	.
=18-	=18-	=18-	=18-	=18-	=18-	=18-	=18-	=18-	=18-	=18-	=18-	=18-	=18-	=18-	=18-
!	!	!	!	!	!	!	!	!LO:SIC:v:t=custos c	!	!	!	!	!	!	!
1r	.	1r	.	1r	.	1r	.	1f	-a	1a,	-a	1cc,	-a	1ff	-a
!	!	!	!	!	!	!	!	!LO:LB:g=original	!	!	!	!	!	!	!
=19-	=19-	=19-	=19-	=19-	=19-	=19-	=19-	=19-	=19-	=19-	=19-	=19-	=19-	=19-	=19-
1c	O-	1.g	O-	1cc	O-	2ee\	O-	4c/	O-	1.g	O-	1cc	O-	1gg	.
.	.	.	.	.	.	.	.	4d\	.	.	.	.	.	.	.
.	.	.	.	.	.	2gg\	-mnes	4e\	-mnes	.	.	.	.	.	.
.	.	.	.	.	.	.	.	4f\	.	.	.	.	.	.	.
=20-	=20-	=20-	=20-	=20-	=20-	=20-	=20-	=20-	=20-	=20-	=20-	=20-	=20-	=20-	=20-
4G/	-mnes	.	.	2.b-y\	-mnes	1.dd	qui	2g\	.	.	.	2dd\	-mnes	2gg\	O-
4A/	.	.	.	.	.	.	.	.	.	.	.	.	.	.	.
4B-/	.	2d/	-mnes	.	.	.	.	2g\	qui	2g\	-mnes	2dd\	qui	4dd\	-mnes
4c/	.	.	.	4b-\	qui	.	.	.	.	.	.	.	.	4ee\	.
=21-	=21-	=21-	=21-	=21-	=21-	=21-	=21-	=21-	=21-	=21-	=21-	=21-	=21-	=21-	=21-
2d\	.	2d/	qui	4a\	.	.	.	4d\	.	1a	qui	2dd\	.	2.ff\	qui
.	.	.	.	4g/	.	.	.	4e\	.	.	.	.	.	.	.
!LO:SIC:v:t=custos A	!	!	!	!	!	!	!	!	!	!	!	!	!	!	!
2d\	qui	2a\	di-	4f/	di-	2dd\	di-	4f\	di-	.	.	4a\	di-	.	.
.	.	.	.	4g/	-li-	.	.	4g\	-li-	.	.	4b-\	-li-	4ff\	di-
!LO:LB:g=original	!	!	!	!	!	!	!	!	!	!	!	!	!	!	!
=22-	=22-	=22-	=22-	=22-	=22-	=22-	=22-	=22-	=22-	=22-	=22-	=22-	=22-	=22-	=22-
2.A/	di-	2.a\	-li-	4a\	-gi-	2.cc\	-li-	1a	-gi-	2.cc\	di-	1cc	-gi-	2.ee\	-li-
.	.	.	.	4b-\	-tis	.	.	.	.	.	.	.	.	.	.
.	.	.	.	2cc\	.	.	.	.	.	.	.	.	.	.	.
4B-/	-li-	4e/	.	.	.	4dd\	.	.	.	4b-\	-li-	.	.	4dd\	-gi-
=23-	=23-	=23-	=23-	=23-	=23-	=23-	=23-	=23-	=23-	=23-	=23-	=23-	=23-	=23-	=23-
2c/	-gi-	2g\	-gi-	0cc	e-	4cc\	-[gi]-	2g\	-tis	1g	-gi-	0cc	-tis	4ee\	.
.	.	.	.	.	.	4dd\	.	.	.	.	.	.	.	4ff\	.
2c/	-tis	2c/	-tis	.	.	4ee\	.	2c/	.	.	.	.	.	2gg\	-tis
!	!	!	!	!	!	!LO:SIC:v:t=custos ff	!	!	!	!	!	!	!	!	!
.	.	.	.	.	.	4cc\	.	.	.	.	.	.	.	.	.
!	!	!	!	!	!	!LO:LB:g=original	!	!	!	!	!	!	!	!	!
=24-	=24-	=24-	=24-	=24-	=24-	=24-	=24-	=24-	=24-	=24-	=24-	=24-	=24-	=24-	=24-
4F/	e-	1c	e-	.	.	2ff,\	-tis	1f	e-	1a	-tis	.	.	2.ff\	.
4G/	.	.	.	.	.	.	.	.	.	.	.	.	.	.	.
4A/	.	.	.	.	.	2cc\	e-	.	.	.	.	.	.	.	.
4B-/	.	.	.	.	.	.	.	.	.	.	.	.	.	8ee\L	e-
.	.	.	.	.	.	.	.	.	.	.	.	.	.	8dd\J	.
=25-	=25-	=25-	=25-	=25-	=25-	=25-	=25-	=25-	=25-	=25-	=25-	=25-	=25-	=25-	=25-
!	!	!LO:SIC:v:t=custos f	!	!	!	!	!	!	!	!	!	!	!	!	!
2c/	.	1c	-am	1cc,	-am	1cc,	-am	2c/	.	2g\	.	2cc\	e-	2ee\	.
!	!	!	!	!	!	!	!	!	!	!	!	!	!	!LO:SIC:v:t=custos dd	!
2f,\	-am	.	.	.	.	.	.	2F,/	-am	2a\	e-	2a,\	-am	2ff\	-am
!	!	!LO:LB:g=original	!	!	!	!	!	!	!	!	!	!	!	!LO:LB:g=original	!
=26-	=26-	=26-	=26-	=26-	=26-	=26-	=26-	=26-	=26-	=26-	=26-	=26-	=26-	=26-	=26-
2B-/	in	2f\	in	2b-\	in	2dd\	in	2B-/	in	4d/	-am	2b-\	in	4dd\	in
.	.	.	.	.	.	.	.	.	.	4e/	in	.	.	4ee\	.
2F/	ae-	2c/	ae-	2a\	ae-	2cc\	ae-	2f\	ae-	2f\	ae-	2cc\	ae-	2.ff\	ae-
=27-	=27-	=27-	=27-	=27-	=27-	=27-	=27-	=27-	=27-	=27-	=27-	=27-	=27-	=27-	=27-
1c	-ter-	1c	-ter-	1g	-ter-	1cc	-ter-	1c	-ter-	1g	-ter-	1cc	-ter-	.	.
.	.	.	.	.	.	.	.	.	.	.	.	.	.	8ee\L	.
.	.	.	.	.	.	.	.	.	.	.	.	.	.	8dd\J	.
.	.	.	.	.	.	.	.	.	.	.	.	.	.	2ee\	-ter-
=28-	=28-	=28-	=28-	=28-	=28-	=28-	=28-	=28-	=28-	=28-	=28-	=28-	=28-	=28-	=28-
4F/	-num	4c,/	-num	4a\	-nu(m),	4cc\	-num	2f\	-num	2f\	-num	2cc\	-num.	2ff\	-num
4f\	Na-	4a\	Na-	4cc\	Na-	4ff\	Na-	.	.	.	.	.	.	.	.
4f\	-ſce-	4a\	-sce-	4cc\	-ſce-	4ff\	-ſce-	2r	.	2r	.	2r	.	2r	.
4d\	-tur	4a\	-tur	4dd\	-tur	4ff\	-tur	.	.	.	.	.	.	.	.
=29-	=29-	=29-	=29-	=29-	=29-	=29-	=29-	=29-	=29-	=29-	=29-	=29-	=29-	=29-	=29-
!	!	!	!	!	!	!	!	!	!	!	!	!LO:SIC:v:t=custos dd	!	!	!
4e-X\	ti-	4g\	ti-	4b-\	ti-	4ee-X\	ti-	1r	.	1r	.	1r	.	1r	.
4B-/	-bi	4f\	-bi	4b-\	-bi	4dd\	-bi	.	.	.	.	.	.	.	.
4.f\	pa-	4.a\	pa-	4.cc\	pa-	4.cc\	pa-	.	.	.	.	.	.	.	.
8f\	-ruu-	8f\	-ruu-	8cc\	-ruu-	8cc\	-ruu-	.	.	.	.	.	.	.	.
!	!	!	!	!	!	!	!	!	!	!	!	!LO:LB:g=original	!	!	!
=30-	=30-	=30-	=30-	=30-	=30-	=30-	=30-	=30-	=30-	=30-	=30-	=30-	=30-	=30-	=30-
4A/	-lus	4f\	-lus	4b-\	-lus	4dd\	-lus	4r	.	4r	.	4r	.	4r	.
4r	.	4r	.	4r	.	4r	.	4B-/	Na-	4b-\	Na-	4dd\	Na-	4ff\	Na-
2r	.	2r	.	2r	.	2r	.	4B-/	-ſce-	4b-\	-sce-	4dd\	-sce-	4ff\	-ſce-
!	!	!	!	!	!	!	!	!	!	!LO:SIC:v:t=custos b-	!	!	!	!	!
.	.	.	.	.	.	.	.	4B-/	-tur	4b-\	-tur	4dd\	-tur	4ff\	-tur
!	!	!	!	!	!	!	!	!	!	!LO:LB:g=original	!	!	!	!	!
=31-	=31-	=31-	=31-	=31-	=31-	=31-	=31-	=31-	=31-	=31-	=31-	=31-	=31-	=31-	=31-
1r	.	1r	.	1r	.	1r	.	4e-X\	ti-	4b-\	ti-	4b-\	ti-	4ee-X\	ti-
.	.	.	.	.	.	.	.	4B-/	-bi	4b-\	-bi	4dd\	-bi	4dd\	-bi
.	.	.	.	.	.	.	.	4.f\	pa-	4.a\	pa-	4.cc\	pa-	4.ff\	pa-
.	.	.	.	.	.	.	.	8f\	-ruu-	8a\	-ruu-	8cc\	-ruu-	8ff\	-ruu-
=32-	=32-	=32-	=32-	=32-	=32-	=32-	=32-	=32-	=32-	=32-	=32-	=32-	=32-	=32-	=32-
4r	.	4r	.	4r	.	4r	.	4B-/	-lus	4b-\	-lus	4dd\	-lus	4ff\	-lus
!	!	!	!	!LO:SIC:v:t=custos bb-	!	!	!	!	!	!	!	!	!	!	!
2d\	et	2f\	et	2a\	et	2dd\	et	4r	.	4r	.	4r	.	4r	.
.	.	.	.	.	.	.	.	2r	.	2r	.	2r	.	2r	.
!	!	!	!	!LO:LB:g=original	!	!	!	!	!	!	!	!	!	!	!
!LO:SIC:v:t=custos f	!	!	!	!	!	!	!	!	!	!	!	!	!	!	!
4g\	vo-	4g\	vo-	4b-\	Vo-	4eeny\	vo-	.	.	.	.	.	.	.	.
!LO:LB:g=original	!	!	!	!	!	!	!	!	!	!	!	!	!	!	!
=33-	=33-	=33-	=33-	=33-	=33-	=33-	=33-	=33-	=33-	=33-	=33-	=33-	=33-	=33-	=33-
4.f\	-ca-	4.a\	-ca-	4.cc\	-ca-	4.ff\	-ca-	0r	.	0r	.	0r	.	0r	.
8f\	-bi-	8a\	-bi-	8cc\	-bi-	8ff\	-bi-	.	.	.	.	.	.	.	.
4f\	-tur	4a\	-tur	4cc\	tur	4ff\	-tur	.	.	.	.	.	.	.	.
2B-/	De-	2b-\	De-	2dd\	De-	2ff\	De-	.	.	.	.	.	.	.	.
=34-	=34-	=34-	=34-	=34-	=34-	=34-	=34-	=34-	=34-	=34-	=34-	=34-	=34-	=34-	=34-
.	.	.	.	.	.	.	.	.	.	.	.	.	.	.	.
4e-X\	-us	4g\	-us	4b-\	-us	4ee-X\	-us	.	.	.	.	.	.	.	.
2f\	for-	2a\	for-	2a\	for-	2cc\	for-	.	.	.	.	.	.	.	.
=35-	=35-	=35-	=35-	=35-	=35-	=35-	=35-	=35-	=35-	=35-	=35-	=35-	=35-	=35-	=35-
!	!	!	!	!	!	!LO:SIC:v:t=custos dd	!	!	!	!	!	!	!	!	!
4B-/	-tis	4f\	-tis	4b-\	-tis	4dd\	-tis	4eny\	et	4r	.	4r	.	4r	.
!	!	!	!	!	!	!LO:LB:g=original	!	!	!	!	!	!	!	!	!
4r	.	4r	.	4r	.	4r	.	2G/	.	2b-\	et	2dd\	et	2gg\	et
2r	.	2r	.	2r	.	2r	.	.	.	.	.	.	.	.	.
!	!	!	!	!	!	!	!	!LO:SIC:v:t=custos B-	!	!	!	!	!	!	!
.	.	.	.	.	.	.	.	4c/	Vo-	4g\	Vo-	4cc\	vo-	8dd\L	vo-
.	.	.	.	.	.	.	.	.	.	.	.	.	.	8eeny\J	.
!	!	!	!	!	!	!	!	!LO:LB:g=original	!	!	!	!	!	!	!
=36-	=36-	=36-	=36-	=36-	=36-	=36-	=36-	=36-	=36-	=36-	=36-	=36-	=36-	=36-	=36-
0r	.	0r	.	0r	.	0r	.	4.B-/	-ca-	4.b-\	-ca-	4.dd\	-ca-	4.ff\	-ca-
.	.	.	.	.	.	.	.	8B-/	-bi-	8b-\	-bi-	8dd\	-bi-	8ff\	-bi-
.	.	.	.	.	.	.	.	4B-/	-tur	4b-\	-tur	4dd\	-tur	4ff\	-tur
.	.	.	.	.	.	.	.	2A/	De-	2b-\	De-	2dd\	De-	2ff\	De-
=37-	=37-	=37-	=37-	=37-	=37-	=37-	=37-	=37-	=37-	=37-	=37-	=37-	=37-	=37-	=37-
.	.	.	.	.	.	.	.	.	.	.	.	.	.	.	.
!	!	!	!	!	!	!	!	!	!	!	!	!	!	!LO:SIC:v:t=custos cc	!
.	.	.	.	.	.	.	.	4e-X\	-us	4g\	-us	4b-\	-us	4ee-X\	-us
!	!	!	!	!	!	!	!	!	!	!	!	!	!	!LO:LB:g=original	!
.	.	.	.	.	.	.	.	2f\	for-	2cc\	for-	2a\	for-	2cc\	for-
=38-	=38-	=38-	=38-	=38-	=38-	=38-	=38-	=38-	=38-	=38-	=38-	=38-	=38-	=38-	=38-
4r	.	4r	.	4r	.	4r	.	2B-/	-tis	2b-\	-tis	2b-\	-[tis]	2dd\	-tis
4B-/	Ip-	4f\	Ip-	4b-\	Ip-	4dd\	Ip-	.	.	.	.	.	.	.	.
4e-X\	-ſe	4g\	-se	4g/	-se	4b-/	-se	2r	.	2r	.	2r	.	2r	.
!	!	!LO:SIC:v:t=custos f	!	!	!	!	!	!	!	!	!	!	!	!	!
4c/	ſe-	4c/	se-	4a\	se-	4cc\	se-	.	.	.	.	.	.	.	.
!	!	!LO:LB:g=original	!	!	!	!	!	!	!	!	!	!	!	!	!
=39-	=39-	=39-	=39-	=39-	=39-	=39-	=39-	=39-	=39-	=39-	=39-	=39-	=39-	=39-	=39-
2B-/	-de-	2f\	-de-	2b-\	-de-	2dd\	-de-	2r	.	2r	.	2r	.	2r	.
4f\	-bit	4f\	-bit	4a\	-bit	4dd\	-bit	4r	.	4r	.	4r	.	4r	.
4r	.	4r	.	4r	.	4r	.	4d\	Ip-	4a\	Ip-	4dd\	Ip-	4ff\	Ip-
=40-	=40-	=40-	=40-	=40-	=40-	=40-	=40-	=40-	=40-	=40-	=40-	=40-	=40-	=40-	=40-
0r	.	0r	.	0r	.	0r	.	4B-/	-se	4b-\	-se	4dd\	-se	4dd\	-se
.	.	.	.	.	.	.	.	4c/	se-	4g\	se-	4cc\	se-	4eeny\	se-
.	.	.	.	.	.	.	.	2d\	-de-	4.f\	-de-	2a\	-de-	2ff\	-de-
.	.	.	.	.	.	.	.	.	.	8g\	-bit	.	.	.	.
=41-	=41-	=41-	=41-	=41-	=41-	=41-	=41-	=41-	=41-	=41-	=41-	=41-	=41-	=41-	=41-
.	.	.	.	.	.	.	.	1d	-bit	1a,	.	1dd,	-bit	1ff	-bit
=42-	=42-	=42-	=42-	=42-	=42-	=42-	=42-	=42-	=42-	=42-	=42-	=42-	=42-	=42-	=42-
2.B-/	Su-	1.f	Su-	2.b-\	Su-	2.dd\	Su-	4B-/	Su-	1.f	Su-	1dd	Su-	4dd\	Su-
.	.	.	.	.	.	.	.	4c/	.	.	.	.	.	4ee\	.
.	.	.	.	.	.	.	.	4d\	-per	.	.	.	.	4ff\	-per
8A/L	-per	.	.	8a\L	-per	4b-/	.	4eny\	.	.	.	.	.	8ee\L	.
8G/J	.	.	.	8g\J	.	.	.	.	.	.	.	.	.	8dd\J	.
=43-	=43-	=43-	=43-	=43-	=43-	=43-	=43-	=43-	=43-	=43-	=43-	=43-	=43-	=43-	=43-
4F/	.	.	.	1a	thro-	2cc\	-per	1f	thro-	.	.	2.a\	-per	2.cc\	thro-
4G/	.	.	.	.	.	.	.	.	.	.	.	.	.	.	.
4A/	.	2c/	-per	.	.	2cc\	thro-	.	.	2f\	-per	.	.	.	.
!	!	!	!	!	!	!	!	!	!	!	!	!LO:SIC:v:t=custos cc	!	!	!
4B-/	.	.	.	.	.	.	.	.	.	.	.	4b-\	.	4dd\	-num
!	!	!	!	!	!	!	!	!	!	!	!	!LO:LB:g=original	!	!	!
=44-	=44-	=44-	=44-	=44-	=44-	=44-	=44-	=44-	=44-	=44-	=44-	=44-	=44-	=44-	=44-
2c/	thro-	1c	thro-	2g/	-num	2.cc\	-num	2c/	.	2g\	thro-	1cc	thro-	4cc\	.
.	.	.	.	.	.	.	.	.	.	.	.	.	.	4dd\	.
2F/	-num	.	.	4a\	.	.	.	2f\	-num	2a\	-num	.	.	4ee\	.
.	.	.	.	4b-\	.	4dd\	.	.	.	.	.	.	.	4ff\	.
=45-	=45-	=45-	=45-	=45-	=45-	=45-	=45-	=45-	=45-	=45-	=45-	=45-	=45-	=45-	=45-
!LO:SIC:v:t=custos G	!	!	!	!	!	!	!	!	!	!	!	!	!	!	!
1c	Da-	2c/	-num	1cc	Da-	2eeny\	Da-	4c/	Da-	1g	Da-	2cc,\	-num	2.gg\	Da-
.	.	.	.	.	.	.	.	4d\	.	.	.	.	.	.	.
.	.	2g\	Da-	.	.	2cc\	.	4e\	.	.	.	4g/	Da-	.	.
.	.	.	.	.	.	.	.	4f\	.	.	.	4a\	.	8ff\L	-uid
.	.	.	.	.	.	.	.	.	.	.	.	.	.	8ee\J	.
!LO:LB:g=original	!	!	!	!	!	!	!	!	!	!	!	!	!	!	!
=46-	=46-	=46-	=46-	=46-	=46-	=46-	=46-	=46-	=46-	=46-	=46-	=46-	=46-	=46-	=46-
!	!	!	!	!	!	!	!	!	!	!LO:SIC:v:t=custos a	!	!	!	!	!
2G/	-uid	1d	-uid	4b-\	-uid	2dd,\	-uid	2g\	-uid	2g\	.	2b-,\	-uid	2.dd\	.
.	.	.	.	4cc\	.	.	.	.	.	.	.	.	.	.	.
!	!	!	!	!	!	!	!	!	!	!LO:LB:g=original	!	!	!	!	!
1d\	Pa-	.	.	1dd\	P(a)-	2dd\	Pa-	2.d\	Pa-	1a\	-uid	1a\	Pa-	.	.
.	.	.	.	.	.	.	.	.	.	.	.	.	.	4ee,\	.
=47-	=47-	=47-	=47-	=47-	=47-	=47-	=47-	=47-	=47-	=47-	=47-	=47-	=47-	=47-	=47-
.	.	2d/	Pa-	.	.	2dd\	-tris	.	.	.	.	.	.	2.ff\	Pa-
.	.	.	.	.	.	.	.	4e\	-tris	.	.	.	.	.	.
2d\	-tris	2a\	-tris	2a\	-(t)ris	2.dd\	.	4f\	.	2f\	Pa-	2a\	-tris	.	.
.	.	.	.	.	.	.	.	4g\	.	.	.	.	.	8ee\L	-tris
.	.	.	.	.	.	.	.	.	.	.	.	.	.	8dd\J	.
=48-	=48-	=48-	=48-	=48-	=48-	=48-	=48-	=48-	=48-	=48-	=48-	=48-	=48-	=48-	=48-
1A	ſu-	1a	su-	1a	su-	.	.	1a	su-	2.a\	-tris	1a	su-	2ee\	.
.	.	.	.	.	.	8cc\L	.	.	.	.	.	.	.	.	.
.	.	.	.	.	.	8b-\J	.	.	.	.	.	.	.	.	.
!	!	!	!	!	!	!LO:TX:a:t=P:problem:# above	!	!	!	!	!	!	!	!LO:SIC:v:t=custos dd	!
.	.	.	.	.	.	2cc#X\	su-	.	.	.	.	.	.	2ee\	Su-
.	.	.	.	.	.	.	.	.	.	4g\	su-	.	.	.	.
!	!	!	!	!	!	!	!	!	!	!	!	!	!	!LO:LB:g=original	!
=49-	=49-	=49-	=49-	=49-	=49-	=49-	=49-	=49-	=49-	=49-	=49-	=49-	=49-	=49-	=49-
2d\	-i	2a\	-i	2a\	-i	2dd\	-i	2d\	-i	2f\	-i	2a\	-i	2dd,\	-i
!	!	!	!	!LO:SIC:v:t=custos dd	!	!	!	!LO:SIC:v:t=custos d	!	!	!	!	!	!	!
2r	.	2r	.	2r	.	2r	.	2r	.	2r	.	2r	.	2dd\	Et
!	!	!	!	!LO:PB:g=original	!	!	!	!LO:LB:g=original	!	!	!	!	!	!	!
=50-	=50-	=50-	=50-	=50-	=50-	=50-	=50-	=50-	=50-	=50-	=50-	=50-	=50-	=50-	=50-
!	!	!	!	!	!	!LO:SIC:v:t=custos ff	!	!	!	!	!	!	!	!	!
1r	.	1r	.	1r	.	1r	.	1r	.	1r	.	1r	.	4cc\	im-
.	.	.	.	.	.	.	.	.	.	.	.	.	.	4b-/	-pe-
.	.	.	.	.	.	.	.	.	.	.	.	.	.	2dd\	-ra-
!	!	!	!	!	!	!LO:PB:g=original	!	!	!	!	!	!	!	!	!
=51-	=51-	=51-	=51-	=51-	=51-	=51-	=51-	=51-	=51-	=51-	=51-	=51-	=51-	=51-	=51-
2r	.	2r	.	2r	.	2r	.	2r	.	2r	.	2r	.	2dd\	-bit
2.d\	Si-	2.d/	Si-	2.dd\	Si-	2.ff\	Si-	2.d\	Si-	2.a\	Si-	2.dd\	Si-	2r	.
=52-	=52-	=52-	=52-	=52-	=52-	=52-	=52-	=52-	=52-	=52-	=52-	=52-	=52-	=52-	=52-
.	.	.	.	.	.	.	.	.	.	.	.	.	.	1r	.
4d\	-ne	4d/	-ne	4a\	-ne	4ff\	-ne	4d\	-ne	4a\	-ne	4dd\	-ne	.	.
!	!	!	!	!	!	!	!	!	!	!	!	!LO:TX:b:t=P:problem:# below	!	!	!
4A/	fi-	4e/	fi-	4a\	fi-	4ee\	fi-	4a\	fi-	4a\	fi-	4cc#X\	fi-	.	.
!	!	!LO:TX:a:t=P:problem:# above	!	!	!	!	!	!	!	!	!	!	!	!	!
4d\	-ne	4f#X\	-ne	4a\	-ne	4dd\	-ne	4d\	-ne	4a\	-ne	4dd\	-ne	.	.
=53-	=53-	=53-	=53-	=53-	=53-	=53-	=53-	=53-	=53-	=53-	=53-	=53-	=53-	=53-	=53-
0r	.	0r	.	0r	.	0r	.	0r	.	0r	.	0r	.	2ff\	et
.	.	.	.	.	.	.	.	.	.	.	.	.	.	4ee-X\	im-
.	.	.	.	.	.	.	.	.	.	.	.	.	.	4dd\	-pe-
=54-	=54-	=54-	=54-	=54-	=54-	=54-	=54-	=54-	=54-	=54-	=54-	=54-	=54-	=54-	=54-
.	.	.	.	.	.	.	.	.	.	.	.	.	.	2ff\	-ra-
.	.	.	.	.	.	.	.	.	.	.	.	.	.	2ff\	-bit
=55-	=55-	=55-	=55-	=55-	=55-	=55-	=55-	=55-	=55-	=55-	=55-	=55-	=55-	=55-	=55-
4F/	si-	4fny\	si-	4cc\	si-	4ff\	si-	4f\	ſi-	4a\	si-	4ccny\	Si-	1r	.
4c/	-ne	4g\	-ne	4cc\	-ne	4ee\	-ne	4c/	-ne	4g\	-ne	4cc\	-ne	.	.
!	!	!	!	!LO:TX:a:t=P:problem:# above	!	!	!	!	!	!	!	!	!	!	!
!	!	!	!	!LO:N:acc=#	!	!	!	!	!	!	!	!	!	!	!
4G/	fi-	4g\	fi-	4bn\	fi-	4dd\	fi-	4g\	fi-	4g\	fi-	4dd\	fi-	.	.
4c/	-ne	4e/	-ne	4cc\	-ne	4ee\	-ne	4c/	-ne	4g\	-ne	4cc\	-ne	.	.
=56-	=56-	=56-	=56-	=56-	=56-	=56-	=56-	=56-	=56-	=56-	=56-	=56-	=56-	=56-	=56-
0r	.	0r	.	0r	.	0r	.	0r	.	0r	.	0r	.	2gg\	et
.	.	.	.	.	.	.	.	.	.	.	.	.	.	4ff\	im-
.	.	.	.	.	.	.	.	.	.	.	.	.	.	4eeny\	-pe-
=57-	=57-	=57-	=57-	=57-	=57-	=57-	=57-	=57-	=57-	=57-	=57-	=57-	=57-	=57-	=57-
.	.	.	.	.	.	.	.	.	.	.	.	.	.	2gg\	-ra-
.	.	.	.	.	.	.	.	.	.	.	.	.	.	2gg\	-bit
=58-	=58-	=58-	=58-	=58-	=58-	=58-	=58-	=58-	=58-	=58-	=58-	=58-	=58-	=58-	=58-
*	*	*	*	*	*	*	*	*	*ij	*	*	*	*	*	*
4c/	si-	4g\	si-	4cc\	si-	4ee\	si-	4c/	Si-	4g\	si-	4cc\	si-	1r	.
4c/	-ne	4e/	-ne	4cc\	-ne	4ee\	-ne	4c/	-ne	4g\	-ne	4cc\	-ne	.	.
!	!	!	!	!LO:TX:a:t=P:problem:# above	!	!	!	!	!	!	!	!	!	!	!
!	!	!	!	!LO:N:acc=#	!	!	!	!	!	!	!	!	!	!	!
4G/	fi-	4g\	.	4bn\	fi-	4dd\	fi-	4g\	fi-	4f\	fi-	4dd\	fi-	.	.
4B-/	-ne	4g\	.	4cc\	-ne	4ee\	-ne	4c/	-ne	4f\	-ne	4cc\	-ne	.	.
=59-	=59-	=59-	=59-	=59-	=59-	=59-	=59-	=59-	=59-	=59-	=59-	=59-	=59-	=59-	=59-
*	*	*	*	*	*	*	*	*	*	*	*ij	*	*ij	*	*
!	!	!LO:SIC:v:t=custos f	!	!	!	!	!	!	!	!	!	!	!	!	!
1r	.	1r	.	1r	.	1r	.	4c/	ſi-	4g\	si-	4cc\	si-	8ee\L	ſi-
.	.	.	.	.	.	.	.	.	.	.	.	.	.	8ff\J	.
.	.	.	.	.	.	.	.	4G/	-ne	4g\	-ne	4dd\	-ne	4gg\	-ne
!	!	!	!	!	!	!	!	!	!	!	!	!	!	!LO:TX:b:t=P:problem:# below	!
.	.	.	.	.	.	.	.	4d\	fi-	4a\	fi-	4dd\	fi-	4ff#X\	fi-
.	.	.	.	.	.	.	.	4G/	-ne	4g\	-ne	4dd\	-ne	4gg,\	-ne
*	*	*	*	*	*	*	*	*	*Xij	*	*Xij	*	*Xij	*	*
!	!	!LO:LB:g=original	!	!	!	!	!	!	!	!	!	!	!	!	!
=60-	=60-	=60-	=60-	=60-	=60-	=60-	=60-	=60-	=60-	=60-	=60-	=60-	=60-	=60-	=60-
4B-/	ſi-	4f\	fi-	4b-y\	si-	4dd\	si-	4B-/	-ſi-	4f\	si-	4b-\	si-	8dd\L	ſi-
.	.	.	.	.	.	.	.	.	.	.	.	.	.	8ee\J	.
4F/	-ne	4B-/	.	4a\	-ne	4ccny\	-ne	4f\	-ne	4f\	-ne	4cc\	-ne	4ffny\	-ne
4c/	fi-	4B-/	-ne	4g/	fi-	4cc\	fi-	4c/	fi-	4g\	fi-	4cc\	fi-	4ee\	fi-
!	!	!	!	!	!	!	!	!	!	!	!	!LO:SIC:v:t=custos cc	!	!LO:SIC:v:t=custos ff	!
4F/	-ne	4c/	.	4a\	-ne	4cc\	.	4f\	-ne	4f\	-ne	4cc\	-ne	4ff\	-ne
.	.	.	.	.	.	.	-ne	.	.	.	.	.	.	.	.
!	!	!	!	!	!	!	!	!	!	!	!	!LO:LB:g=original	!	!LO:LB:g=original	!
=61-	=61-	=61-	=61-	=61-	=61-	=61-	=61-	=61-	=61-	=61-	=61-	=61-	=61-	=61-	=61-
*M3/2	*	*M3/2	*	*M3/2	*	*M3/2	*	*M3/2	*	*M3/2	*	*M3/2	*	*M3/2	*
!LO:N:vis=0	!	!LO:N:vis=0	!	!LO:N:vis=0	!	!LO:N:vis=0	!	!	!	!	!	!	!	!	!
0.r	.	0.r	.	0.r	.	0.r	.	1f	Lae-	1a	Lae-	1cc	Lae-	1ff	Lae-
.	.	.	.	.	.	.	.	1f\	-ta-	1a\	-ta-	1cc\	-ta-	1ff\	-ta-
=62-	=62-	=62-	=62-	=62-	=62-	=62-	=62-	=62-	=62-	=62-	=62-	=62-	=62-	=62-	=62-
.	.	.	.	.	.	.	.	.	.	.	.	.	.	.	.
.	.	.	.	.	.	.	.	1c	-mi-	1g	-mi-	1cc	-mi-	1ee	-mi-
=63-	=63-	=63-	=63-	=63-	=63-	=63-	=63-	=63-	=63-	=63-	=63-	=63-	=63-	=63-	=63-
1f	Lae-	1f	Lae-	1a	Lae-	1ff	Lae-	2F/	-ni	0a	-ni	0cc	-ni	0ff	-ni
.	.	.	.	.	.	.	.	2G/	.	.	.	.	.	.	.
1f\	-ta-	1c/	-ta-	1a\	-ta-	1ff\	-ta-	2A/	.	.	.	.	.	.	.
=64-	=64-	=64-	=64-	=64-	=64-	=64-	=64-	=64-	=64-	=64-	=64-	=64-	=64-	=64-	=64-
.	.	.	.	.	.	.	.	2B-/	.	.	.	.	.	.	.
!LO:SIC:v:t=custos F	!	!	!	!	!	!	!	!	!	!LO:SIC:v:t=custos a	!	!	!	!	!
1c	-mi-	1c	-mi-	1cc	-mi-	1ee	-mi-	1c	in	1g	in	1cc	in	1gg	in
!LO:LB:g=original	!	!	!	!	!	!	!	!	!	!LO:LB:g=original	!	!	!	!	!
=65-	=65-	=65-	=65-	=65-	=65-	=65-	=65-	=65-	=65-	=65-	=65-	=65-	=65-	=65-	=65-
2F/	-ni	0c	-ni	0cc	-ni	0ff	-ni	1f	Je-	1a	Je-	1a	Je-	1ff	Hie-
2G/	.	.	.	.	.	.	.	.	.	.	.	.	.	.	.
2A/	.	.	.	.	.	.	.	1f\	-ru-	1a\	-ru-	1cc\	-ru-	1ff\	-ru-
=66-	=66-	=66-	=66-	=66-	=66-	=66-	=66-	=66-	=66-	=66-	=66-	=66-	=66-	=66-	=66-
2B-/	.	.	.	.	.	.	.	.	.	.	.	.	.	.	.
1c	in	1e	in	1cc	in	1ee	in	1c	-sa-	1g	-sa-	1cc	-sa-	1gg	-sa-
=67-	=67-	=67-	=67-	=67-	=67-	=67-	=67-	=67-	=67-	=67-	=67-	=67-	=67-	=67-	=67-
1f	Je-	1a	Je-	1cc	Je-	1ff	Je-	1F	-lem	1a	-lem	1cc	-lem	1ff	-lem
1c\	-ru-	1g\	-ru-	1cc\	-ru-	1ee\	-ru-	1r	.	1r	.	1r	.	1r	.
=68-	=68-	=68-	=68-	=68-	=68-	=68-	=68-	=68-	=68-	=68-	=68-	=68-	=68-	=68-	=68-
.	.	.	.	.	.	.	.	.	.	.	.	.	.	.	.
!	!	!	!	!	!	!	!	!LO:SIC:v:t=custos G	!	!	!	!	!	!	!
1G	-sa-	1g	-sa-	1b-	-sa-	1dd	-sa-	1r	.	1r	.	1r	.	1r	.
!	!	!	!	!LO:LB:g=original	!	!LO:LB:g=original	!	!LO:LB:g=original	!	!	!	!	!	!	!
=69-	=69-	=69-	=69-	=69-	=69-	=69-	=69-	=69-	=69-	=69-	=69-	=69-	=69-	=69-	=69-
*M2/2	*	*M2/2	*	*M2/2	*	*M2/2	*	*M2/2	*	*M2/2	*	*M2/2	*	*M2/2	*
*met(c|)	*	*met(c|)	*	*met(c|)	*	*met(c|)	*	*met(c|)	*	*met(c|)	*	*met(c|)	*	*met(c|)	*
4c/	-lem	4f\	-lem	4cc\	-lem	4ee\	-lem	4r	.	4r	.	4r	.	4r	.
4r	.	4r	.	4r	.	4r	.	4G/	et	4b-\	et	4dd\	et	4gg\	et
2r	.	2r	.	2r	.	2r	.	4A/	ex-	4a\	ex-	4cc\	ex-	4ff\	ex-
!	!	!	!	!	!	!	!	!	!	!LO:TX:a:t=P:problem:rozmazana nuta	!	!	!	!	!
.	.	.	.	.	.	.	.	4c/	-ul-	4a\	-ul-	4cc\	-ul-	4ee\	-ul-
=70-	=70-	=70-	=70-	=70-	=70-	=70-	=70-	=70-	=70-	=70-	=70-	=70-	=70-	=70-	=70-
4r	.	4r	.	4r	.	4r	.	2B-/	-ta-	2d/	-ta-	2g/	-ta-	2dd\	-ta-
4G/	et	4b-\	et	4dd\	et	4gg\	et	.	.	.	.	.	.	.	.
4A/	ex-	4a\	ex-	4cc\	ex-	4ff\	ex-	4c/	-te	4g\	-te	4cc\	-te.	4cc\	-te.
4c/	-ul-	4g\	-ul-	4cc\	-ul-	4ee\	-ul-	4r	.	4r	.	4r	.	4r	.
=71-	=71-	=71-	=71-	=71-	=71-	=71-	=71-	=71-	=71-	=71-	=71-	=71-	=71-	=71-	=71-
2B-/	-ta-	2d/	-ta-	2g/	-ta-	2dd\	-ta-	4r	.	4r	.	4r	.	4r	.
*	*	*	*	*	*	*	*	*	*ij	*	*	*	*	*	*
.	.	.	.	.	.	.	.	4G/	et	4b-\	et	4dd\	et	4gg\	et
4c/	-te	4g\	-te	4cc\	-te	4cc\	-te.	4A/	ex-	4a\	ex-	4cc\	ex-	4ff\	ex-
4r	.	4r	.	4r	.	4r	.	4c/	-ul-	4g\	-ul-	4cc\	-ul-	4ee\	-ul-
=72-	=72-	=72-	=72-	=72-	=72-	=72-	=72-	=72-	=72-	=72-	=72-	=72-	=72-	=72-	=72-
4r	.	4r	.	4r	.	4r	.	2B-/	-ta-	2d/	-ta-	2g/	-ta-	2dd\	-ta-
4G/	et	4b-\	et	4dd\	et	4gg\	et	.	.	.	.	.	.	.	.
4A/	ex-	4a\	ex-	4cc\	ex-	4ff\	ex-	4c/	-te	4g\	-te	4cc\	-te	4cc\	-te.
*	*	*	*	*	*	*	*	*	*Xij	*	*	*	*	*	*
!	!	!	!	!	!	!	!	!	!	!	!	!	!	!LO:SIC:v:t=custos gg	!
4c/	-ul-	4g\	-ul-	4cc\	-ul-	4ee\	-ul-	4r	.	4r	.	4r	.	4r	.
!	!	!	!	!	!	!	!	!	!	!	!	!	!	!LO:PB:g=original	!
=73-	=73-	=73-	=73-	=73-	=73-	=73-	=73-	=73-	=73-	=73-	=73-	=73-	=73-	=73-	=73-
2B-/	-ta-	2e/	-ta-	2g/	-ta-	2dd\	-ta-	4r	.	4r	.	4r	.	4r	.
.	.	.	.	.	.	.	.	4G/	et	4b-\	et	4dd\	et	4gg\	et
4c/	-te	4g\	-te	4cc\	-te	4cc\	-te	4A/	ex-	4a\	ex-	4cc\	ex-	4ff\	ex-
!	!	!	!	!	!	!	!	!	!	!	!	!LO:SIC:v:t=custos b	!	!	!
4r	.	4r	.	4r	.	4r	.	4c/	-ul-	4g\	-ul-	4cc\	-ul-	4ee\	-ul-
!	!	!	!	!	!	!	!	!	!	!	!	!LO:LB:g=original	!	!	!
=74-	=74-	=74-	=74-	=74-	=74-	=74-	=74-	=74-	=74-	=74-	=74-	=74-	=74-	=74-	=74-
!	!	!LO:SIC:v:t=custos d	!	!	!	!	!	!	!	!	!	!LO:TX:b:t=P:problem:# below	!	!	!
!	!	!	!	!	!	!	!	!	!	!	!	!LO:N:acc=#	!	!	!
2r	.	2r	.	2r	.	2r	.	2A/	-ta-	2g\	-ta-	2bn\	-ta-	2dd\	-ta-
!	!	!LO:PB:g=original	!	!	!	!	!	!	!	!	!	!	!	!	!
4r	.	4r	.	4r	.	4r	.	4c,/	-te	4g\	-te	4cc\	-te	4ee\	-te
!LO:SIC:v:t=custos d	!	!	!	!	!	!	!	!	!	!	!	!	!	!	!
4G/	in	4d/	in	4b-\	in	4dd\	in	4g\	in	4g\	in	2dd\	in	4gg\	in
!LO:LB:g=original	!	!	!	!	!	!	!	!	!	!	!	!	!	!	!
=75-	=75-	=75-	=75-	=75-	=75-	=75-	=75-	=75-	=75-	=75-	=75-	=75-	=75-	=75-	=75-
!	!	!	!	!	!	!	!	!	!	!	!	!	!	!LO:TX:b:t=P:problem:# below	!
2d\	e-	2d/	e-	2a\	e-	2dd\	e-	2d\	e-	2a\	e-	.	.	2ff#X\	e-
.	.	.	.	.	.	.	.	.	.	.	.	4a\	e-	.	.
2G,/	-a	2d,/	-a	2b-,\	-a	2dd,\	-a	2g,\	-a	2g,\	-a	2dd,\	-a	2gg,\	-a
=76-	=76-	=76-	=76-	=76-	=76-	=76-	=76-	=76-	=76-	=76-	=76-	=76-	=76-	=76-	=76-
1c	O-	1.g	O-	1cc	O-	4ee\	o-	4c/	O-	1.g	O-	1cc	O-	1gg	o-
.	.	.	.	.	.	4ff\	.	4d\	.	.	.	.	.	.	.
.	.	.	.	.	.	2gg\	-mnes	4e\	.	.	.	.	.	.	.
.	.	.	.	.	.	.	.	4f\	.	.	.	.	.	.	.
=77-	=77-	=77-	=77-	=77-	=77-	=77-	=77-	=77-	=77-	=77-	=77-	=77-	=77-	=77-	=77-
4G/	-mnes	.	.	2.b-\	-mnes	1dd	qui	2g\	-mnes	.	.	2dd\	-mnes	2gg\	-mnis
4A/	.	.	.	.	.	.	.	.	.	.	.	.	.	.	.
4B-/	.	2d/	-mnes	.	.	.	.	2g\	.	2g\	-mnes	2dd\	qui	4dd\	qui
4c/	.	.	.	4b-\	qui	.	.	.	.	.	.	.	.	4ee\	.
=78-	=78-	=78-	=78-	=78-	=78-	=78-	=78-	=78-	=78-	=78-	=78-	=78-	=78-	=78-	=78-
2d\	qui	2d/	qui	4a\	.	2dd\	di-	4d\	qui	2.a\	qui	2dd\	di-	2.ffny\	di-
.	.	.	.	4g/	.	.	.	4e\	.	.	.	.	.	.	.
2d\	.	2a\	di-	4f/	di-	2dd\	-li-	4f\	.	.	.	4a\	-li-	.	.
!	!	!	!	!	!	!	!	!	!	!LO:SIC:v:t=custos cc	!	!	!	!	!
.	.	.	.	4g/	-li-	.	.	4g\	di-	4b-\	.	4b-y\	-gi-	4ff\	-li-
!	!	!	!	!	!	!	!	!	!	!LO:LB:g=original	!	!	!	!	!
=79-	=79-	=79-	=79-	=79-	=79-	=79-	=79-	=79-	=79-	=79-	=79-	=79-	=79-	=79-	=79-
2.A/	di-	2.a\	-li-	4a\	-gi-	2.cc\	-gi-	1a	-li-	2.cc\	di-	1cc	-tis	2.ee\	-gi-
.	.	.	.	4b-\	.	.	.	.	.	.	.	.	.	.	.
.	.	.	.	2cc\	-tis	.	.	.	.	.	.	.	.	.	.
!	!	!	!	!	!	!LO:SIC:v:t=custos cc	!	!	!	!	!	!	!	!	!
4B-/	-li-	4e/	-gi-	.	.	4dd\	.	.	.	4b-\	-li-	.	.	4dd\	-tis
!	!	!	!	!LO:LB:g=original	!	!LO:LB:g=original	!	!	!	!	!	!	!	!	!
=80-	=80-	=80-	=80-	=80-	=80-	=80-	=80-	=80-	=80-	=80-	=80-	=80-	=80-	=80-	=80-
2c/	.	2g\	.	0cc	e-	4cc\	.	2g\	-gi-	1g	-gi-	0cc	.	4ee\	.
.	.	.	.	.	.	4dd\	.	.	.	.	.	.	.	4ff\	.
2c/	-gi-	2c/	-tis	.	.	4ee\	.	2c/	-tis	.	.	.	.	2gg,\	.
.	.	.	.	.	.	4cc\	.	.	.	.	.	.	.	.	.
=81-	=81-	=81-	=81-	=81-	=81-	=81-	=81-	=81-	=81-	=81-	=81-	=81-	=81-	=81-	=81-
4F/	-tis	1c	e-	.	.	2ff\	-tis	1f	e-	1a	-tis	.	.	2.ff\	e-
4G/	.	.	.	.	.	.	.	.	.	.	.	.	.	.	.
4A/	e-	.	.	.	.	2cc\	e-	.	.	.	.	.	.	.	.
4B-/	.	.	.	.	.	.	.	.	.	.	.	.	.	8ee\L	.
.	.	.	.	.	.	.	.	.	.	.	.	.	.	8dd\J	.
=82-	=82-	=82-	=82-	=82-	=82-	=82-	=82-	=82-	=82-	=82-	=82-	=82-	=82-	=82-	=82-
2c/	.	1c,	-am	1cc	-am	1cc,	-am	2c,/	-am	2g\	e-	2cc\	e-	2ee\	-am
2f,\	-am	.	.	.	.	.	.	2F/	in	2a\	-am	2a,\	-am	2ff,\	.
=83-	=83-	=83-	=83-	=83-	=83-	=83-	=83-	=83-	=83-	=83-	=83-	=83-	=83-	=83-	=83-
2B-/	in	2f\	in	2b-\	in	2dd\	in	2B-/	ae-	4d/	.	2b-\	in	4dd\	in
!	!	!	!	!	!	!	!	!	!	!	!	!	!	!LO:SIC:v:t=custos ff	!
.	.	.	.	.	.	.	.	.	.	4e/	in	.	.	4ee\	.
!	!	!	!	!	!	!	!	!	!	!	!	!	!	!LO:LB:g=original	!
2F/	ae-	2c/	ae-	2a\	ae-	2cc\	ae-	2f\	-ter-	2f\	ae-	2cc\	ae-	2.ff\	ae-
=84-	=84-	=84-	=84-	=84-	=84-	=84-	=84-	=84-	=84-	=84-	=84-	=84-	=84-	=84-	=84-
1c	-ter-	1c	-ter-	1g	-ter-	1cc	-ter-	1c	-num	1g	-ter-	1cc	-ter-	.	.
.	.	.	.	.	.	.	.	.	.	.	.	.	.	8ee\L	.
.	.	.	.	.	.	.	.	.	.	.	.	.	.	8dd\J	.
.	.	.	.	.	.	.	.	.	.	.	.	.	.	2ee\	-ter-
=85-	=85-	=85-	=85-	=85-	=85-	=85-	=85-	=85-	=85-	=85-	=85-	=85-	=85-	=85-	=85-
!	!	!	!	!	!	!	!	!LO:SIC:v:t=custos f	!	!	!	!	!	!	!
2F/	-num	2c/	-num	2a\	-num	2cc\	-num	2f\	in	2f,\	-num	2cc,\	-num	2ff,\	-num
!	!	!	!	!	!	!	!	!LO:LB:g=original	!	!	!	!	!	!	!
2r	.	2r	.	2r	.	2r	.	1f\	ae-	1a\	in	1cc\	in	1ff\	in
=86-	=86-	=86-	=86-	=86-	=86-	=86-	=86-	=86-	=86-	=86-	=86-	=86-	=86-	=86-	=86-
1r	.	1r	.	1r	.	1r	.	.	.	.	.	.	.	.	.
.	.	.	.	.	.	.	.	2e\	-ter-	2g\	ae-	2cc\	ae-	2gg\	ae-
=87-	=87-	=87-	=87-	=87-	=87-	=87-	=87-	=87-	=87-	=87-	=87-	=87-	=87-	=87-	=87-
2r	.	2r	.	2r	.	2r	.	1f	.	1a	-ter-	2.a\	-ter-	1ff	-ter-
2f\	in	2a\	in	2cc\	in	2ff\	in	.	.	.	.	.	.	.	.
.	.	.	.	.	.	.	.	.	.	.	.	4b-\	.	.	.
=88-	=88-	=88-	=88-	=88-	=88-	=88-	=88-	=88-	=88-	=88-	=88-	=88-	=88-	=88-	=88-
1eny	ae-	1e	ae-	1cc	ae-	1gg	ae-	2c/	-num	2g\	-num	2cc\	-num	2ee\	-num
!	!	!	!	!	!	!	!	!	!	!	!	!LO:SIC:v:t=custos cc	!	!	!
.	.	.	.	.	.	.	.	2r	.	2r	.	2r	.	2r	.
!	!	!	!	!	!	!	!	!	!	!	!	!LO:PB:g=original	!	!	!
=89-	=89-	=89-	=89-	=89-	=89-	=89-	=89-	=89-	=89-	=89-	=89-	=89-	=89-	=89-	=89-
1f	-ter-	1a	-ter-	2.a\	-ter-	1ff	-ter-	1r	.	1r	.	1r	.	1r	.
.	.	.	.	4b-\	.	.	.	.	.	.	.	.	.	.	.
=90-	=90-	=90-	=90-	=90-	=90-	=90-	=90-	=90-	=90-	=90-	=90-	=90-	=90-	=90-	=90-
!LO:SIC:v:t=custos c	!	!	!	!	!	!	!	!	!	!	!	!	!	!	!
2c/	-nu(m)	2g\	-num	2cc,\	-num	2ee,\	-num	2r	.	2r	.	2r	.	2r	.
!LO:PB:g=original	!	!LO:LB:g=original	!	!	!	!	!	!	!	!	!	!	!	!	!
2c/	in	2c/	in	2cc\	in	2ee\	in	2c/	in	2g\	in	2cc\	in	2ee\	in
=91-	=91-	=91-	=91-	=91-	=91-	=91-	=91-	=91-	=91-	=91-	=91-	=91-	=91-	=91-	=91-
1F	ae-	2c/	ae-	1a	ae-	1cc	.	4f\	ae-	1a	ae-	1cc	ae-	2ff\	ae-
.	.	.	.	.	.	.	.	4e\	.	.	.	.	.	.	.
.	.	1f\	-ter-	.	.	.	.	4d\	.	.	.	.	.	8ee\L	.
.	.	.	.	.	.	.	.	.	.	.	.	.	.	8dd\J	.
.	.	.	.	.	.	.	.	4c/	.	.	.	.	.	4cc\	.
=92-	=92-	=92-	=92-	=92-	=92-	=92-	=92-	=92-	=92-	=92-	=92-	=92-	=92-	=92-	=92-
4B-/	-ter-	.	.	1b-	-ter-	4ff\	ae-	2.B-/	-ter-	2.f\	-ter-	1b-	-ter-	4dd\	.
4c/	.	.	.	.	.	4ee\	-ter-	.	.	.	.	.	.	4ee\	.
4d\	.	2d/	-num	.	.	2dd\	.	.	.	.	.	.	.	2.ff\	.
4e\	.	.	.	.	.	.	.	8A/L	.	4g\	.	.	.	.	.
.	.	.	.	.	.	.	.	8G/J	.	.	.	.	.	.	.
=93-	=93-	=93-	=93-	=93-	=93-	=93-	=93-	=93-	=93-	=93-	=93-	=93-	=93-	=93-	=93-
2f,\	-num	2c,/	.	2a\	-num	1cc,	-num	2F/	-num	2a,\	-num	2cc,\	-num	.	.
.	.	.	.	.	.	.	.	.	.	.	.	.	.	8ee\L	-ter-
.	.	.	.	.	.	.	.	.	.	.	.	.	.	8dd\J	.
2c/	in	2e/	in	2a\	in	.	.	2c/	in	2g\	in	2cc\	in	2ee,\	-num
=94-	=94-	=94-	=94-	=94-	=94-	=94-	=94-	=94-	=94-	=94-	=94-	=94-	=94-	=94-	=94-
1F	ae-	1.f	.	1cc	ae-	2cc\	in	4f\	ae-	1f	ae-	1a	ae-	2ff,\	in
.	.	.	.	.	.	.	.	4e\	.	.	.	.	.	.	.
.	.	.	.	.	.	2cc\	ae-	4d\	.	.	.	.	.	2ff\	ae-
.	.	.	.	.	.	.	.	4c/	.	.	.	.	.	.	.
=95-	=95-	=95-	=95-	=95-	=95-	=95-	=95-	=95-	=95-	=95-	=95-	=95-	=95-	=95-	=95-
0B-	-ter-	.	.	0b-	-ter-	0dd	-ter-	0B-	-ter-	0f	-ter-	0b-	-ter-	4ff\	.
.	.	.	.	.	.	.	.	.	.	.	.	.	.	4ee\	.
.	.	2d/	ae-	.	.	.	.	.	.	.	.	.	.	4dd\	.
.	.	.	.	.	.	.	.	.	.	.	.	.	.	4cc\	.
=96-	=96-	=96-	=96-	=96-	=96-	=96-	=96-	=96-	=96-	=96-	=96-	=96-	=96-	=96-	=96-
.	.	1f	-ter-	.	.	.	.	.	.	.	.	.	.	2.dd\	.
.	.	.	.	.	.	.	.	.	.	.	.	.	.	4ee\	-ter-
=97-	=97-	=97-	=97-	=97-	=97-	=97-	=97-	=97-	=97-	=97-	=97-	=97-	=97-	=97-	=97-
!LO:TX:a:t=P:problem:znak fermatopodobny nad i pod nutą	!	!LO:TX:a:t=P:problem:znak fermatopodobny nad i pod nutą	!	!LO:TX:a:t=P:problem:znak fermatopodobny nad i pod nutą	!	!LO:TX:a:t=P:problem:znak fermatopodobny nad i pod nutą	!	!LO:TX:a:t=P:problem:znak fermatopodobny nad i pod nutą	!	!LO:TX:a:t=P:problem:znak fermatopodobny nad i pod nutą	!	!LO:TX:a:t=P:problem:znak fermatopodobny nad i pod nutą	!	!LO:TX:a:t=P:problem:znak fermatopodobny nad i pod nutą	!
0F;>;<	-num	0f;>;<	-num	0a;>;<	-num	0cc;>;<	-num	0f;>;<	-num	0f;>;<	-num	0cc;>;<	-num	0ff;>;<	-num
==	==	==	==	==	==	==	==	==	==	==	==	==	==	==	==
*-	*-	*-	*-	*-	*-	*-	*-	*-	*-	*-	*-	*-	*-	*-	*-
!!!system-decoration: [(s1,s2,s3,s4)][(s5,s6,s7,s8)]
!!!RDF**kern: > = above
!!!RDF**kern: < = below
!!!AIN: 8 empty
!!!ENC: Andrzej Gręziak
!!!END: 2021-10-14
!!!ENC: Antoni Szymański
!!!END: 2021-10-21
